X: 803
T: Slattery's Fancy.
C:M. Casey.
B:O'Neill's Music of Ireland
N:O'Neill's - 803
Z:Transcribed by Stephen Foy (shf@access.digex.net)
Z:abc 1.6
Z:Ornament (~) is a turn.
R:Jig
M:6/8
K:A
(A/B/)|~c3 c2 B|cec dBA|GAB BcB|Bec dBA|\
cdc c2 B|cec dBA|GAB Bec|dBG A2:|
||z|a3 gfe|dBA GAB|{d}cBc dcd|efg a2 z|\
a2 a gfe|dBA GAB|{d}cBc cde|dBG A2:|


